X: 1
T: H\onsef\odder og guler\odder
O: trad. Denmark
R: jig
Z: 2006 John Chambers <jc:trillian.mit.edu>
M: 6/8
L: 1/8
K: G
[| "G"B2G GFG |    B2G GFG | "D7"A2A ABc | "G"d3 d3 \
|  "G"B2G GFG |    B2G GFG | "D7"A2A ABA | "G"G3 G3 |]
[| "C"g2g gfe | "G"d2d dcB | "D7"A2A ABc | "G"d3 d3 \
|  "C"g2g gfe | "G"d2d dcB | "D7"A2A ABA | "G"G3 G3 |]
